src/icons/config.npm.svg

<svg width="16" height="16" viewBox="0 0 16 16" fill="none" xmlns="http://www.w3.org/2000/svg">
  <g id="npm">
    <path id="Vector"
      d="M4.74494 4.74493V11.7298H8.24002V6.48986H9.98494V11.7298H11.7298V4.74493H4.74494ZM12.48 3C13.0323 3 13.48 3.44772 13.48 4V12.48C13.48 13.0322 13.0323 13.48 12.48 13.48H4C3.44771 13.48 3 13.0322 3 12.48V4C3 3.44772 3.44772 3 4 3H12.48Z"
      fill="#E75A5A" />
  </g>
</svg>

<svg xmlns="http://www.w3.org/2000/svg" fill="none" viewBox="0 0 16 16">
  <path fill="#E75A5A" d="M4.745 4.745v6.9848H8.24v-5.24h1.745v5.24h1.7448V4.7449H4.7449ZM12.48 3c.5523 0 1 .4477 1 1v8.48c0 .5522-.4477 1-1 1H4c-.5523 0-1-.4478-1-1V4c0-.5523.4477-1 1-1h8.48Z"/>
</svg>
